X:111
T:Mackintosh's Hornpipe
R:Hornpipe
O:England
M:4/4
A:Lancashire
B:Winder
K:G
D2G2 BABG | AcBd cBAG | D2G2 BABG | AcBd c2g2 |\
D2G2 BABG | AcBd c2BA | BdcB AcBA | B2G2 G4 ::\
efgd Bdg2 | G2FG ABA2 | efgd efg2 | G2FG ABA2 |\
efgd BdeG | FGAB c2BA | BdcB AcBA | B2G2 G4 :|**
